X:5068
T:The Leaky Currach
M:6/8
R:Jig
L:1/8
Q:180
C:Aidan Crossey
K:D
|:AFD AFD|BAG AFD|AFD AFD|BAG A3|
fed ecA|ecA ABc|dBA GBA|FAE D3:||
|:def fed|ecA Ace|def fed|ecA A3|
def fed|ecA Ace|dBA GBA|FAE D3:||
